X: 134
T: Orchill House
R:Slow Strathspey
C:Nathaniel Gow
S:MacDonald - Skye Collection
N:pg.59
M:C
L:1/8
Q:1/4=140
K:A Minor
(E/^F/)|(G<A,) E>B, DG, G,(E/^F/)|(G<A,) E>A, GA,A,A|G<A, E>B, DG G(E/^F/)|
(G/^F/E/F/) GB, A,2 A,:|
(e/^f/)|(aA) e>=g dG Ge/^g/|(aA) e^g aA Ae/g/|(aA) e>=g dG Ge/^g/|a>e g>B A2
Ae/^g/|
(aA) e=g dG G(e/^g/)|(aA) ~e>d egab|(g/a/)b/a/ (b/a/)g/e/ (g/e/)(d/B/) Gc/B/|
(A/B/)d/e/ (g/e/)d/B/ A2A||


